src/icons/svg/device.svg

<?xml version="1.0" encoding="UTF-8"?>
<svg width="40px" height="27px" viewBox="0 0 40 27" version="1.1" xmlns="http://www.w3.org/2000/svg"
>
    <path d="M6.66666668,3.33333332 L36.6666667,3.33333332 L36.6666667,0 L6.66666668,0 C4.825,0 3.33333336,1.49166668 3.33333332,3.33333332 L3.33333332,21.6666666 L0,21.6666666 L0,26.6666666 L23.3333333,26.6666666 L23.3333333,21.6666666 L6.66666668,21.6666666 L6.66666668,3.33333332 Z M38.3333333,6.66666664 L28.3333333,6.66666664 C27.4166666,6.66666664 26.6666667,7.41666664 26.6666667,8.33333332 L26.6666667,25 C26.6666667,25.9166667 27.4166667,26.6666666 28.3333333,26.6666666 L38.3333333,26.6666666 C39.25,26.6666666 40,25.9166666 40,25 L40,8.33333332 C40,7.41666664 39.25,6.66666664 38.3333333,6.66666664 L38.3333333,6.66666664 Z M36.6666667,21.6666666 L30,21.6666666 L30,10 L36.6666667,10 L36.6666667,21.6666666 Z"
          id="形状"></path>
</svg>

<svg width="40" height="27" xmlns="http://www.w3.org/2000/svg"><path d="M6.667 3.333h30V0h-30a3.332 3.332 0 0 0-3.334 3.333v18.334H0v5h23.333v-5H6.667V3.333zm31.666 3.334h-10c-.916 0-1.666.75-1.666 1.666V25c0 .917.75 1.667 1.666 1.667h10c.917 0 1.667-.75 1.667-1.667V8.333c0-.916-.75-1.666-1.667-1.666zm-1.666 15H30V10h6.667v11.667z"/></svg>
